X: 7
T: Paddy Fahey's
R: reel
M: 4/4
L: 1/8
K: Ddor
|:D^CDE F3G|AD~ED d3e|fedf eA~BA|d2AG FDEC|
DA, ~A,2 DEFG|AD ~D2 d^cde|fedf eA~BA|1d2AG FDCA,:|2d2AG FDD2|
|:Ad ~d2 fded|cBcG EFGc|Ad ~d2 fded|cBcd edd2|
a2^ga AB~BA|dcAd cAGE|DA,~A,2DEFG|1AD~D2d3c:|2AdcA d4|]


Tune 463	Setting 13348

